Adwaita++-Dark/actions/16/qrscanner.svg

<svg height="16" width="16" xmlns="http://www.w3.org/2000/svg">
  <path d="m1 1v5h5v-5zm9 0v5h5v-5zm-8 1h3v3h-3zm5 0v2h1v1h1v-1-1h-1v-1zm1 3h-1v1 1h1v-1zm-1 2h-1v1h-1v1h2zm0 2v1h1v-1zm1 0h3v-2h-1v1h-2zm3 0v1h1v1h1v-2zm0 1h-1v1h1zm-1 1h-2v1h2zm0 1v1h1v-1zm1 1v1h1v-1zm1 0h2v-1h-2zm2 0v2h1v-1-1zm-2 1v1h1v-1zm-1 0h-3-1v1h4zm-3-2h-1v1h1zm-3-4v-1h-2v1zm-2 0h-1v-1h-1v2h2zm8-6h3v3h-3zm-8 1v1h1v-1zm9 0v1h1v-1zm0 4v1h2v1h1v-1-1h-1zm-11 3v5h4.0722656.9277344v-5zm13 0v1h1v-1zm-12 1h3v3h-3zm1 1v1h1v-1z" fill="#e6ddff"/>
</svg>

<svg xmlns="http://www.w3.org/2000/svg" width="16" height="16" version="1">
 <path style="fill:#E6DDFF" d="M 1 1 L 1 6 L 6 6 L 6 1 L 1 1 z M 10 1 L 10 6 L 15 6 L 15 1 L 10 1 z M 2 2 L 5 2 L 5 5 L 2 5 L 2 2 z M 7 2 L 7 4 L 8 4 L 8 5 L 9 5 L 9 4 L 9 3 L 8 3 L 8 2 L 7 2 z M 8 5 L 7 5 L 7 6 L 7 7 L 8 7 L 8 6 L 8 5 z M 7 7 L 6 7 L 6 8 L 5 8 L 5 9 L 7 9 L 7 7 z M 7 9 L 7 10 L 8 10 L 8 9 L 7 9 z M 8 9 L 11 9 L 11 7 L 10 7 L 10 8 L 8 8 L 8 9 z M 11 9 L 11 10 L 12 10 L 12 11 L 13 11 L 13 9 L 11 9 z M 11 10 L 10 10 L 10 11 L 11 11 L 11 10 z M 10 11 L 8 11 L 8 12 L 10 12 L 10 11 z M 10 12 L 10 13 L 11 13 L 11 12 L 10 12 z M 11 13 L 11 14 L 12 14 L 12 13 L 11 13 z M 12 13 L 14 13 L 14 12 L 12 12 L 12 13 z M 14 13 L 14 15 L 15 15 L 15 14 L 15 13 L 14 13 z M 12 14 L 12 15 L 13 15 L 13 14 L 12 14 z M 11 14 L 8 14 L 7 14 L 7 15 L 11 15 L 11 14 z M 8 12 L 7 12 L 7 13 L 8 13 L 8 12 z M 5 8 L 5 7 L 3 7 L 3 8 L 5 8 z M 3 8 L 2 8 L 2 7 L 1 7 L 1 9 L 3 9 L 3 8 z M 11 2 L 14 2 L 14 5 L 11 5 L 11 2 z M 3 3 L 3 4 L 4 4 L 4 3 L 3 3 z M 12 3 L 12 4 L 13 4 L 13 3 L 12 3 z M 12 7 L 12 8 L 14 8 L 14 9 L 15 9 L 15 8 L 15 7 L 14 7 L 12 7 z M 1 10 L 1 15 L 5.0722656 15 L 6 15 L 6 10 L 1 10 z M 14 10 L 14 11 L 15 11 L 15 10 L 14 10 z M 2 11 L 5 11 L 5 14 L 2 14 L 2 11 z M 3 12 L 3 13 L 4 13 L 4 12 L 3 12 z"/>
</svg>
